X: 1
T: the Wild Rose of the Mountain
T: Ros fhiadhaich nam Beann
R: waltz, air
C: John Mason
N: Address: Mr J Mason; J D C Publications; 36 West Portland Street; Troon; Ayrshire; Scotland
D: Skylark III Cassette (Swallow Label Cat No. SWS 423)
Z: 1997 by John Chambers <jc@trillian.mit.edu>
M: 3/4
L: 1/8
K: G
|: D2 \
|  "G"G4 D2 | "D7"A4 D2 | "G7"B3 c d2 | "C"e3 f g2 \
|1,3 "G"d3 e d2 | "Em"B4 G2 | "Am"A6- | "D7"A4 D2 \
:|2,4 "G"d3 B G2 | "D7"A4 B2 | "C"G6- | "G"G4 :|
|| d2 \
| "G"d B3 d2 | "Am"d c3 d2 | "D7"f4 {gf}ef | "G"g4 d2 \
| "C"e3 f g2 | "G"B4 G2 | "Am"A6- | "D7"A4 d2 |
| "G"d B3 d2 | "Am"d c3 d2 | "Bm"f4 {gf}ef | "C"g4 fe \
| "G"d3 B G2 | "D7"A4 B2 | "C"G6- | "G"G4 d2 ||
|| "G"d B3 d2 | "Am"d c3 d2 | "D7"f4 {gf}ef | "Em"g4 fe \
| "C"d4 e2 | "Bm"d4 B2 | "Am"A6- | "D7"A4 GF |
| "C"E3 F G2 | "D7"F3 G A2 | "Em"B3 c d2 | "C"e2 f2 Hg2 \
| "G"d3 B G2 | "D7"A4 B2 | "C"G6- | "G"G4 |]
